X:1
T:No.83 Joe Byrne's
C:barndance
L:1/8
M:4/4
K:G
Bc||dcBA G2Bd|efed B2d2|
edef g2B2|AGAB A2Bc|dcBA G2Bd|
efed B2d2|edef g2B2|[1AGAB G2Bc:|
|[2AGAB G2Bd||g2ge f2fd|efed B2d2|
edefg2B2|AGABA2Bd|g2gef2fd|
efed B2d2|edefg2B2|AGABG2Bd:||
